X:1
T:Humours of Ballyloughlin, pt.1
R:jig
M:6/8
L:1/8
K:Dmix
~A3 AGE|GED DED|cAA ded|cAG FED|~A3 AGE|
~G3 cGE|~D3 DFA|1 ~D3 D3:|2 ~D3 D2B|]
cBc cBc|cAG AB^c|~d3 dfe|dAF DFA|c2A dcB|
cAG FGE|~D3 DFA|1 ~D3 D2B:|2 ~D3 D2e|]
<abc>
